X:1
T:Title
%%score { ( 1 4 ) | ( 2 3 ) }
L:1/8
Q:1/4=100
M:4/4
K:Bb
V:1 treble nm="Grand Piano"
V:4 treble 
V:2 bass 
V:3 bass 
V:1
 F2 B,D F2 =EF | G2 [EA]2 [DB]2 [DB]2 | [Ec]2 [EGc]2 [DFB]2 .[CA]2 | [B,DB]6 z2 | F2 B,D F2 =EF | %5
w: Mrs.~J.~G.~Wilson * * * * *|||||
 [B,FB]2 [Fc]2 [Fd]2 [Fd]2 | [Fc]2 [Fc]2 [=Ec]2 E2 | F6 z2 | A2 A2 A>e G>A | %9
w: ||||
 B2- [EB-]2 [DB]2 [B,DF]2 | [B,EG]2 [B,=EG]2 [Ed]2 [Ec]2 | [Ec]6 z2 | %12
w: |||
 [DB]2 [Fd]2 [Fd]>[Fd] [Fc]>[_Ad] | [Ge]6 G2 | F2 B2 B2 A2 | [DB]6 z2 | %16
w: ||||
 F2- [DF-]2 [DF]>[Fd] [Ec]>B | B2 A2 A4 | A6 z2 | D6 z2 | [DB]2 [Fd]2 [Ff]3 [Fd] | %21
w: |||||
 [Gc]2 [Gd]2 [Ge]2 [Gc]2 | B2 d2 d>c B>c | B6 z2 |] %24
w: |||
V:2
 F,2 B,,D, F,2 =E,F, | G,2 [C,F,]2 [B,,F,]2 [B,,F,]2 | [E,G,]2 E,2 F,2 z E | B,,6 z2 | %4
 F,2 B,,D, F,2 =E,F, | D,2 [C,A,]2 [B,,B,]2 [B,,B,]2 | [C,A,]2 [C,A,]2 [C,G,]2 [C,B,C]2 | %7
 [F,A,C]6 z2 | [F,CE]2 [F,CE]2 [F,CE]>[F,A,E] [F,A,E]>[F,A,E] | F,2 z2 z4 | %10
 E,2 C,2 [C,B,]2 [C,B,]2 | [F,A,]6 z2 | [B,,F,]2 [B,,B,]2 [B,,B,]>[B,,B,] [B,,B,]>[B,,B,] | %13
 [E,B,]6 [=E,B,_D]2 | [F,B,D]2 [F,DF]2 [G,C=E]2 [F,C_E]2 | [B,,B,]6 z2 | %16
 [B,,B,]2 [B,,B,]2 [B,,B,]>[B,,B,] [C,B,]>[D,B,D] | [F,CE]2 [F,CE]2 [F,CE]4 | %18
 [F,CE]2 [F,C]2 [F,C]>[F,CE] [F,A,C]>[F,A,C] | [B,,F,B,]6 z2 | [B,,F,]2 [B,,B,]2 [D,B,]3 [D,B,] | %21
 [E,B,]2 [D,=B,]2 [C,C]2 [E,C]2 | [F,DF]2 [F,B,F]2 [F,B,F]>[F,A,E] [F,B,D]>[F,A,E] | F,2 z2 z4 |] %24
V:3
 x8 | x8 | z4 z2 F,2 | x8 | x8 | x8 | x8 | x8 | x8 | B,,2- [B,,-G,]2 [B,,F,]2 B,,2 | x8 | x8 | x8 | %13
 x8 | x8 | x8 | x8 | x8 | x8 | x8 | x8 | x8 | x8 | B,,2- [B,,-G,]2 [B,,F,]2 z2 |] %24
V:4
 x8 | x8 | x8 | x8 | x8 | x8 | x8 | x8 | x8 | D2 z2 z4 | x8 | x8 | x8 | x8 | x8 | x8 | D2 z2 z4 | %17
 x8 | z2 E2 E>G F>E | x8 | x8 | x8 | x8 | D2 E2 D2 z2 |] %24

